Resources/Icons/PCGEx_Pin_OUT_Filter.svg

<?xml version="1.0" encoding="UTF-8"?>
<svg id="icons" xmlns="http://www.w3.org/2000/svg" viewBox="0 0 100 100">
  <defs>
    <style>
      .cls-1 {
        fill: #fff;
      }
    </style>
  </defs>
  <path d="M84.06,19.92H24.06c-5.08,0-7.82,5.97-4.5,9.82l25.81,29.9v18.95c0,4.67,3.79,8.46,8.46,8.46s8.46-3.79,8.46-8.46v-18.42l26.27-30.43c3.32-3.85.59-9.82-4.5-9.82Z"/>
  <g>
    <path class="cls-1" d="M81.91,16.92H21.91c-5.08,0-7.82,5.97-4.5,9.82l25.81,29.9v18.95h16.91v-18.42l26.27-30.43c3.32-3.85.59-9.82-4.5-9.82Z"/>
    <g>
      <path d="M51.68,82.55c-3.84,0-6.96-3.12-6.96-6.96s3.12-6.96,6.96-6.96,6.96,3.12,6.96,6.96-3.12,6.96-6.96,6.96Z"/>
      <path class="cls-1" d="M51.68,70.13c3.01,0,5.46,2.45,5.46,5.46s-2.45,5.46-5.46,5.46-5.46-2.45-5.46-5.46,2.45-5.46,5.46-5.46M51.68,67.13c-4.67,0-8.46,3.79-8.46,8.46s3.79,8.46,8.46,8.46,8.46-3.79,8.46-8.46-3.79-8.46-8.46-8.46h0Z"/>
    </g>
  </g>
</svg>

<svg xmlns="http://www.w3.org/2000/svg" viewBox="0 0 100 100">
    <defs>
        <style>.cls-1{fill:#fff;}</style>
    </defs>
    <g id="icons">
        <path d="M84.06,19.92h-60a5.94,5.94,0,0,0-4.49,9.82l25.81,29.9v19a8.46,8.46,0,1,0,16.91,0V60.17L88.56,29.74A5.94,5.94,0,0,0,84.06,19.92Z"/>
        <path class="cls-1"
              d="M81.91,16.92h-60a5.94,5.94,0,0,0-4.5,9.82l25.81,29.9v19H60.14V57.17L86.4,26.74A5.94,5.94,0,0,0,81.91,16.92Z"/>
        <path d="M51.68,82.55a7,7,0,1,1,7-7A7,7,0,0,1,51.68,82.55Z"/>
        <path class="cls-1"
              d="M51.68,70.13a5.46,5.46,0,1,1-5.46,5.46,5.47,5.47,0,0,1,5.46-5.46m0-3a8.46,8.46,0,1,0,8.46,8.46,8.46,8.46,0,0,0-8.46-8.46Z"/>
    </g>
</svg>
